<?xml version="1.0" encoding="UTF-8"?>
<map version="1.10" tiledversion="1.12.2" orientation="orthogonal" renderorder="right-down" width="16" height="18" tilewidth="16" tileheight="16" infinite="0" nextlayerid="12" nextobjectid="81">
 <editorsettings>
  <export target="../maps/start.tmj" format="json"/>
 </editorsettings>
 <tileset firstgid="1" source="props.tsx"/>
 <tileset firstgid="28" source="tiles.tsx"/>
 <imagelayer id="3" name="mount_lake" offsetx="0" offsety="-12" parallaxx="0.8" repeatx="1">
  <image source="../images/backgrounds/mount_lake.png" width="256" height="300"/>
 </imagelayer>
 <imagelayer id="4" name="moon" offsetx="256" offsety="32" parallaxx="0.1">
  <image source="../images/backgrounds/moon.png" width="35" height="249"/>
 </imagelayer>
 <objectgroup id="11" name="props">
  <object id="73" gid="7" x="0" y="288" width="64" height="112"/>
  <object id="74" gid="7" x="80" y="288" width="64" height="112"/>
  <object id="75" gid="27" x="96" y="176" width="16" height="16"/>
  <object id="76" gid="27" x="80" y="176" width="16" height="16"/>
  <object id="77" gid="27" x="112" y="176" width="16" height="16"/>
  <object id="78" gid="27" x="128" y="176" width="16" height="16"/>
  <object id="79" gid="7" x="192" y="160" width="64" height="112">
   <properties>
    <property name="collision" type="bool" value="false"/>
   </properties>
  </object>
  <object id="80" gid="9" x="64" y="144" width="46" height="13"/>
 </objectgroup>
 <layer id="10" name="main" width="16" height="18">
  <data encoding="csv">
0,0,0,0,0,0,0,0,0,0,0,0,0,0,0,0,
0,0,0,0,0,0,0,0,0,0,0,0,0,0,0,0,
0,0,0,0,0,0,0,0,0,0,0,0,0,0,0,0,
0,0,0,0,0,0,0,0,0,0,0,0,0,0,0,0,
0,0,0,0,0,0,0,0,0,0,0,0,0,0,0,0,
0,0,0,0,0,0,0,0,0,0,0,0,0,0,0,0,
0,0,0,0,0,0,0,0,0,0,0,0,0,0,0,0,
0,0,0,0,0,0,0,0,0,0,0,0,0,0,0,0,
0,0,0,0,0,0,0,0,0,0,0,0,0,0,0,0,
0,0,0,0,0,0,0,0,0,0,0,0,0,0,0,0,
0,0,0,0,0,0,0,0,0,28,29,29,29,29,29,37,
0,0,0,0,0,0,0,0,0,35,36,36,36,36,36,37,
0,0,0,0,0,0,0,0,0,35,36,36,36,36,36,37,
0,0,0,0,0,0,0,0,0,35,36,36,36,36,36,37,
0,0,0,0,0,0,0,0,0,35,36,36,36,36,36,37,
0,0,0,0,0,0,0,0,0,35,36,36,36,36,36,37,
0,0,0,0,0,0,0,0,0,35,36,36,36,36,36,37,
0,0,0,0,0,0,0,0,0,35,36,36,36,36,36,37
</data>
 </layer>
</map>
