<?xml version="1.0" encoding="UTF-8"?>
<map version="1.10" tiledversion="1.12.2" orientation="orthogonal" renderorder="right-down" width="60" height="18" tilewidth="16" tileheight="16" infinite="0" nextlayerid="10" nextobjectid="73">
 <editorsettings>
  <export target="../maps/start.tmj" format="json"/>
 </editorsettings>
 <tileset firstgid="1" source="props.tsx"/>
 <tileset firstgid="28" source="tiles.tsx"/>
 <imagelayer id="3" name="mount_lake" offsetx="0" offsety="-12" parallaxx="0.8" repeatx="1">
  <image source="../images/backgrounds/mount_lake.png" width="256" height="300"/>
 </imagelayer>
 <imagelayer id="4" name="moon" offsetx="256" offsety="32" parallaxx="0.1">
  <image source="../images/backgrounds/moon.png" width="35" height="249"/>
 </imagelayer>
</map>
