<?xml version="1.0" encoding="UTF-8"?>
<map version="1.10" tiledversion="1.12.2" orientation="orthogonal" renderorder="right-down" width="60" height="18" tilewidth="16" tileheight="16" infinite="0" nextlayerid="8" nextobjectid="55">
 <editorsettings>
  <export target="../maps/start.tmj" format="json"/>
 </editorsettings>
 <tileset firstgid="1" source="props.tsx"/>
 <tileset firstgid="27" source="tiles.tsx"/>
 <imagelayer id="3" name="mount_lake" offsetx="0" offsety="-12" parallaxx="0.8" repeatx="1">
  <image source="../images/backgrounds/mount_lake.png" width="256" height="300"/>
 </imagelayer>
 <imagelayer id="4" name="moon" offsetx="256" offsety="32" parallaxx="0.1">
  <image source="../images/backgrounds/moon.png" width="35" height="249"/>
 </imagelayer>
 <objectgroup id="6" name="props">
  <object id="1" gid="7" x="176" y="288" width="64" height="112"/>
  <object id="2" gid="7" x="240" y="288" width="64" height="112"/>
  <object id="14" gid="10" x="256" y="176" width="16" height="146.743"/>
  <object id="15" gid="10" x="288" y="176" width="16" height="146.743"/>
  <object id="16" gid="10" x="224" y="176" width="16" height="146.743"/>
  <object id="17" gid="9" x="336" y="160" width="46" height="13"/>
  <object id="18" gid="9" x="416" y="160" width="46" height="13"/>
  <object id="19" gid="9" x="496" y="144" width="46" height="13">
   <properties>
    <property name="collision" type="bool" value="true"/>
   </properties>
  </object>
  <object id="21" gid="7" x="592" y="288" width="64" height="112">
   <properties>
    <property name="collision" type="bool" value="true"/>
   </properties>
  </object>
  <object id="22" gid="7" x="704" y="288" width="64" height="112"/>
  <object id="23" gid="7" x="768" y="288" width="64" height="112"/>
  <object id="24" gid="7" x="752" y="176" width="64" height="112">
   <properties>
    <property name="collision" type="bool" value="false"/>
   </properties>
  </object>
  <object id="25" gid="7" x="896" y="176" width="64" height="112">
   <properties>
    <property name="collision" type="bool" value="false"/>
   </properties>
  </object>
  <object id="40" gid="10" x="288" y="288" width="16" height="146.743"/>
  <object id="46" gid="2147483668" x="352" y="96" width="32" height="32"/>
  <object id="47" gid="2147483668" x="432" y="80" width="32" height="32"/>
  <object id="48" gid="2147483668" x="512" y="112" width="32" height="32"/>
  <object id="49" gid="2147483668" x="608" y="80" width="32" height="32"/>
  <object id="50" gid="21" x="400" y="144" width="32" height="32"/>
  <object id="51" gid="20" x="336" y="144" width="32" height="32"/>
  <object id="52" gid="24" x="53.5" y="180.25" width="54" height="54"/>
  <object id="53" gid="25" x="94.75" y="179.75" width="54" height="54"/>
  <object id="54" gid="26" x="145" y="179.5" width="54" height="54"/>
 </objectgroup>
 <layer id="1" name="main" width="60" height="18">
  <data encoding="csv">
34,35,35,35,35,35,35,35,35,35,35,35,35,35,35,35,35,35,36,0,0,0,0,0,0,0,0,0,0,0,0,0,0,0,0,0,0,0,0,0,0,0,0,0,0,0,0,34,35,35,35,35,35,35,35,35,35,35,35,35,
34,35,35,35,35,35,35,35,35,35,35,35,35,35,35,35,35,35,36,0,0,0,0,0,0,0,0,0,0,0,0,0,0,0,0,0,0,0,0,0,0,0,0,0,0,0,0,34,35,35,35,35,35,35,35,35,35,35,35,35,
34,35,35,35,35,35,35,35,35,35,35,35,35,35,35,35,35,35,36,0,0,0,0,0,0,0,0,0,0,0,0,0,0,0,0,0,0,0,0,0,0,0,0,0,0,0,0,34,35,35,35,35,35,35,35,35,35,35,35,35,
34,1073741852,1073741852,1073741852,1073741852,1073741852,1073741852,1073741852,1073741852,1073741852,1073741852,1073741852,1073741852,1073741852,1073741852,1073741852,1073741852,1073741852,1073741853,0,0,0,0,0,0,0,0,0,0,0,0,0,0,0,0,0,0,0,0,0,0,0,0,0,0,0,0,41,42,42,42,42,42,42,42,42,42,42,42,42,
34,0,0,0,0,0,0,0,0,0,0,0,0,0,0,0,0,0,0,0,0,0,0,0,0,0,0,0,0,0,0,0,0,0,0,0,0,0,0,0,0,0,0,0,0,0,0,0,0,0,0,0,0,0,0,0,0,0,0,0,
34,0,0,0,0,0,0,0,0,0,0,0,0,0,0,0,0,0,0,0,0,0,0,0,0,0,0,0,0,0,0,0,0,0,0,0,0,0,0,0,0,0,0,0,0,0,0,0,0,0,0,0,0,0,0,0,0,0,0,0,
34,0,0,0,0,0,0,0,0,0,0,0,0,0,0,0,0,0,0,0,0,0,0,0,0,0,0,0,0,0,0,0,0,0,0,0,0,0,0,0,0,0,0,0,0,0,0,0,0,0,0,0,0,0,0,0,0,0,0,0,
34,0,0,0,0,0,0,0,0,0,0,0,0,0,0,0,0,0,0,0,0,0,0,0,0,0,0,0,0,0,0,0,0,0,0,0,0,0,0,0,0,0,0,0,0,0,0,0,0,0,0,0,0,0,0,0,0,0,0,0,
34,0,0,0,0,0,0,0,0,0,0,0,0,0,0,0,0,0,0,0,0,0,0,0,0,0,0,0,0,0,0,0,0,0,0,0,0,0,0,0,0,0,0,0,0,0,0,0,0,0,0,0,0,0,0,0,0,0,0,0,
34,0,0,0,0,0,0,0,0,0,0,0,0,0,0,0,0,0,0,0,0,0,0,0,0,0,0,0,0,0,0,0,0,0,0,0,0,0,0,0,0,0,0,0,0,0,0,0,0,0,0,0,0,0,0,0,0,0,0,0,
34,0,0,0,0,0,0,0,0,0,0,0,0,0,0,0,0,0,0,0,0,0,0,0,0,0,0,0,0,0,0,0,0,0,0,0,0,0,0,0,0,0,0,0,0,0,0,0,0,0,0,0,0,0,0,0,0,0,0,0,
34,28,28,28,28,28,28,28,28,28,29,0,0,0,0,0,0,0,0,0,0,0,0,0,0,0,0,0,0,0,0,0,0,0,0,0,0,0,0,0,0,0,0,0,0,0,0,0,0,0,0,0,0,0,0,27,28,28,28,28,
34,35,35,35,35,35,35,35,35,35,36,0,0,34,0,0,0,0,0,0,0,0,0,0,0,0,0,0,0,0,0,0,0,0,0,0,0,0,0,0,0,0,0,0,0,0,0,0,0,0,0,0,0,0,0,34,35,35,35,35,
34,35,35,35,35,35,35,35,35,35,36,0,0,0,0,0,0,0,0,0,0,0,0,0,0,0,0,0,0,0,0,0,0,0,0,0,0,0,0,0,0,0,0,0,0,0,0,0,0,0,0,0,0,0,0,34,35,35,35,35,
34,35,35,35,35,35,35,35,35,35,36,0,0,0,0,0,0,0,0,0,0,0,0,0,0,0,0,0,0,0,0,0,0,0,0,0,0,0,0,0,0,0,0,0,0,0,0,0,0,0,0,0,0,0,0,34,35,35,35,35,
34,35,35,35,35,35,35,35,35,35,36,0,0,0,0,0,0,0,0,0,0,0,0,0,0,0,0,0,0,0,0,0,0,0,0,0,0,0,0,0,0,0,0,0,0,0,0,0,0,0,0,0,0,0,0,34,35,35,35,35,
34,35,35,35,35,35,35,35,35,35,36,0,0,0,0,0,0,0,0,0,0,0,0,0,0,0,0,0,0,0,0,0,0,0,0,0,0,0,0,0,0,0,0,0,0,0,0,0,0,0,0,0,0,0,0,34,35,35,35,35,
41,42,42,42,42,42,42,42,42,42,36,0,0,0,0,0,0,0,0,0,0,0,0,0,0,0,0,0,0,0,0,0,0,0,0,0,0,0,0,0,0,0,0,0,0,0,0,0,0,0,0,0,0,0,0,34,35,35,35,35
</data>
 </layer>
</map>
